X: 29308
T: New Tune Makers Of 2007
R: hornpipe
M: 4/4
K: Fdorian
|:G,|A,2AF dB=AB|GDEG edce|BEcE dEeE|CEDC DB,B,G,|
A,2AF DF=AB|DEed c=Bce|Gedc CAGF|A,FED E3:|
F|EAce FBdf|Gceg Bdfb|gBaB bged|cedc B=A_AF|
EAce FBdf|Gceg Bded|c=Bce Gedc|=AcBA B3=B|
cEDE A,Ede|BEDE G,Ede|c=Bce _BGFE|DEFG =ABc_d|
cEDE A,Ede|BEDE G,Ede|cG,A,C GA=EF|=AB_AF E3||

